X:8
T:Casper's Song
B:Goulding and d'Almaine's Twenty-four Country Dances For the year 1826.
L:1/8
M:2/4
N:Yes, this really is a peculiar tune.
Z:Richard Robinson <URL:http://www.qualmograph.org.uk/contact.html>
F:http://richardrobinson.tunebook.org.uk/Tune/3552
K:E min
% - - - - - - - - - - - - - - - - - - - - - - - - -
e2 e2 | ed/c/ Bc | B2 z2 | \
B2 e2 | ^dd/e/ ff | B4 | \
=de/f/ gB/c/ | Td4 | \
G2 Te2 | .d.b Te2 | db z2 |
Bd cf | gd b2 | Bd cf | gd b2 | \
"^>"g3 f/e/ | (d/e/d/c/) (B/c/B/A/) | G/A/B/c/ d2 | e3 f |
"^>"g3 f/e/ | (d/e/d/c/) (B/c/B/A/) | G/A/B/c/ Td2 |\
G2 Te2 | .db Te2 | .db z2 | \
TB4 | eE z2 |]
% - - - - - - - - - - - - - - - - - - - - - - - - -
%%begintext align
%% FANCY Figure
%%endtext
